X:7112
%8553
T:Killaghbeg House
T:Ah, Surely
S:Trad, arr. Paddy O'Brien
R:reel
E:9
I:speed 350
M:C|
K:Cmaj
E|DB,DF EC~C2|ECEG cAGE|DB,DF ECEG|AcGF EC~C2|\
DB,DF EC~C2|ECEG cBcd|ecdc AcBd|cAGF ECC:|\
d|ec~c2 dcAB|cBcA GAcd|ec~c2 dcAG|Addc Ad~d2|\
ec ~c2 dcAB|cBcA GAcd|ecdc AcBd|cAGF EC C2
%Warning : No repeat expected, found :|
:|**
\vfill\eject


